X: 466
T: Sibao zhuzhu
%%abc-version 2.0
%%abcx-abcm2ps-target-version 5.9.1 (29 Sep 2008)
%%abc-creator hum2abc beta
%%abcx-conversion-date 2013/10/02 07:52:30
%%abc-edited-by Helmut Schaffrath
%%humdrum-veritas 3289299455
%%humdrum-veritas-data 2016175018
%%continueall 1
%%barnumbers 0
L: 1/16
M: 2/4
K: Bb
c'2 f' f' f' d'2 c' [I:setbarnb 1]| 
f' d'2 c'b4 | 
b c'2 d' c' c'2 b | 
c' a2 gf4 | 
d f2 g b b2 g | 
d f2 gb4 | 
b c'2 f' c' b2 g | 
d f2 g2< b2 c' | 
f g2 dc4 |]  



